Yaru++/mimetypes/48/text-x-tex.svg

<svg height="48" viewBox="0 0 12.699375 12.699375" width="48" xmlns="http://www.w3.org/2000/svg" xmlns:xlink="http://www.w3.org/1999/xlink"><linearGradient id="a" gradientUnits="userSpaceOnUse" x1="6.350072" x2="6.350072" y1=".396856" y2="12.03795"><stop offset="0" stop-color="#fff"/><stop offset=".125" stop-color="#fff" stop-opacity=".098039"/><stop offset=".92500001" stop-color="#fff" stop-opacity=".098039"/><stop offset="1" stop-color="#fff" stop-opacity=".498039"/></linearGradient><linearGradient id="b" gradientTransform="matrix(0 -.02997086 .02997 0 -3.039509 13.625372)" gradientUnits="userSpaceOnUse" x1="459.03448" x2="35.310345" y1="419.23337" y2="207.36522"><stop offset="0" stop-color="#f2f2f2"/><stop offset="1" stop-color="#f9f9f9"/></linearGradient><path d="m4.1621982.39685594c-.5881133-.0089583-1.0513178.0135408-1.4323995.0775109-.3810845.0639689-.6929229.1839555-.9213477.4118408-.228422.22788546-.3489841.53958336-.4123566.92082866-.0633725.3812456-.0757438.8453924-.07286 1.4349839v3.2399529 3.2415027c-.00286.5886862.00955 1.0525982.07286 1.4334342.063373.381246.1839345.692944.4123566.920829.2284247.227885.5402631.347873.9213476.411841.3810844.06397.8442174.07751 1.4323995.07751h4.3757443c.5881821 0 1.0510744-.01352 1.4313677-.07751.3802939-.064.6911799-.18439.9187599-.412357.227584-.227967.347434-.539443.411325-.920313.06389-.380868.07751-.844073.07751-1.4334342v-3.2415027-3.1748437l-2.8389625-2.84361416z" opacity=".1"/><path d="m4.1623596.39685594c-2.3346161 0-2.5858177.2397934-2.574375 2.57913196v3.2414149 3.241415c-.011456 2.3393392.2397589 2.5791322 2.574375 2.5791322h4.3757787c2.3346157 0 2.5743757-.239767 2.5743757-2.5791322v-3.241415l-.000178-3.1748438-2.6457031-2.64570306z" fill="none" opacity=".2" stroke="#000" stroke-width=".529141"/><path d="m4.1623596.39685594c-2.3346161 0-2.5858177.2397934-2.574375 2.57913196v3.2414149 3.241415c-.011456 2.3393392.2397589 2.5791322 2.574375 2.5791322h4.3757787c2.3346157 0 2.5743757-.239767 2.5743757-2.5791322v-3.241415l-.000178-3.1748438-2.6457031-2.64570306z" fill="url(#b)"/><path d="m7.1318254 5.6892543v.1193556h.079575c.2118652 0 .2848814.027431.3580721.1352775l.7081857 1.0742136-.636572.9309886c-.0539327.0770428-.1679387.2546304-.5570052.2546304v.1193582l.4296887-.015901c.1425293 0 .354667.00437.4933442.015901v-.1193582c-.1771986-.0038628-.2466721-.113678-.2466721-.1830165 0-.034669.012832-.045152.039786-.087525l.5490443-.8116331.6047443.9230329c.0077.015398.023864.02823.023864.039783 0 .046226-.088988.1155088-.2546278.1193583v.1193582c.1348251-.011562.4185767-.015901.5649582-.015901l.5013105.015901v-.1193578h-.071617c-.2003114 0-.2851327-.023811-.3660277-.1432305l-.8116297-1.2254023.5251721-.7718442c.0847471-.1232686.2221147-.2507757.5649581-.2546331v-.1193556l-.429686.015901c-.1540884 0-.3392611-.00437-.4933469-.015901v.1193556c.1540858.00386.2387165.086462.2387165.1750609 0 .038519-.00487.05311-.03183.095483l-.445603.6445334-.4933416-.7400164c-.00773-.011562-.023891-.040291-.023891-.0557 0-.046226.081027-.1155035.2466721-.1193609v-.1193556c-.134825.011562-.4185793.015901-.5649581.015901zm-4.1495182 0-.071614.8673329h.095483c.05393-.6201951.110601-.747972.6922747-.747972.069339 0 .1683673.0002513.2068861.00796.080895.015424.08753.054628.08753.1432277v2.0734614c0 .1309729-.00132.199031-.4058164.1909748h-.1591435v.1193592c.1579379-.011562.5548622-.015901.7320582-.015901.1772012 0 .5741228.00437.7320607.015901v-.1193556h-.1591417c-.4044751 0-.3978582-.060002-.3978582-.1909748v-2.0734614c0-.077043-.00569-.1278218.063658-.1432304.042371-.0077.1496092-.00796.2228-.00796.5816737 0 .638342.1277768.692272.747972h.095489l-.0716192-.8673338zm2.1016858 1.0652686v.1193556h.095486c.2966151 0 .3023748.036381.3023748.1750582v2.0401441c0 .138674-.00577.183014-.3023748.183014h-.095486v.119358h2.2200465l.1671052-.994649h-.1034443c-.096304.59323-.180892.875291-.8434607.875291h-.5092609c-.1810481 0-.1909695-.03202-.1909695-.159145v-1.0359855h.3421582c.373658 0 .4217304.126126.4217304.4535585h.095486v-1.0264723h-.095486c0 .3312818-.048072.4535556-.4217304.4535556h-.3421582v-.9325442c0-.1271155.00995-.1511834.1909695-.1511834h.4933469c.589378 0 .6942987.2045684.755933.7400164h.095486l-.1114026-.859372z" fill="#111"/><path d="m1.5878047 6.2174028v3.241503c-.011456 2.3393382.2397774 2.5790442 2.5743935 2.5790442h4.3757443c2.3346165 0 2.5743935-.239679 2.5743935-2.5790442v-3.241503z" fill="#fff" opacity=".2"/><path d="m6.3500704.39685594v11.64109406h2.1878721c2.3346165 0 2.5743935-.239679 2.5743935-2.5790442v-3.241503-3.1748438l-2.6457031-2.64570306z" fill="#fff" opacity=".1"/><path d="m4.1621982.39685594c-2.3346161 0-2.5858362.2397052-2.5743935 2.57904386v3.241503 3.241503c-.011456 2.3393382.2397774 2.5790442 2.5743935 2.5790442h4.3757443c2.3346165 0 2.5743935-.239679 2.5743935-2.5790442v-3.241503-3.1748438h-.26457v3.1748438 3.241503c0 .5803222-.01624 1.0240722-.07028 1.3461042-.05402.322035-.139871.509123-.264055.633524-.124184.124388-.310701.2105-.6319709.264571-.321273.05406-.7643965.07028-1.3435224.07028h-4.3757395c-.5791259 0-1.0227997-.01619-1.3450728-.07028-.3222705-.0541-.5102953-.14009-.635072-.264571-.124774-.124488-.2105873-.311351-.2640517-.633005-.053467-.321654-.0684682-.765512-.0656267-1.3455902v-.000529-3.242007-3.2420198-.0005291c-.00283-.5800778.01217-1.0239334.065627-1.3455882.053467-.3216548.1392777-.5085247.2640517-.63300506.1247741-.1244803.3133201-.2104736.6355905-.2645703.3222705-.0540718.7654284-.070264 1.3445543-.070264h4.3044347v-.2645704z" fill="url(#a)" opacity=".4"/><path d="m11.112336 3.3071294v-.2645704l-2.6457031-2.64570306h-.2645703v1.11359066.042668.022917c0 1.5059289.201592 1.7381397 1.7109762 1.7307589z" opacity=".2"/><path d="m11.112336 3.0422204-2.6457031-2.64536496v.98127586.042668.022917c0 1.5059289.069402 1.6058846 1.5787861 1.5985039z" fill="#faf8f6"/></svg>

<?xml version="1.0" encoding="UTF-8" standalone="no"?>
<svg
   xmlns:dc="http://purl.org/dc/elements/1.1/"
   xmlns:cc="http://creativecommons.org/ns#"
   xmlns:rdf="http://www.w3.org/1999/02/22-rdf-syntax-ns#"
   xmlns:svg="http://www.w3.org/2000/svg"
   xmlns="http://www.w3.org/2000/svg"
   xmlns:xlink="http://www.w3.org/1999/xlink"
   xmlns:sodipodi="http://sodipodi.sourceforge.net/DTD/sodipodi-0.dtd"
   xmlns:inkscape="http://www.inkscape.org/namespaces/inkscape"
   height="48"
   viewBox="0 0 12.699375 12.699375"
   width="48"
   version="1.1"
   id="svg33"
   sodipodi:docname="text-x-tex.svg"
   inkscape:version="0.92.5 (2060ec1f9f, 2020-04-08)">
  <metadata
     id="metadata39">
    <rdf:RDF>
      <cc:Work
         rdf:about="">
        <dc:format>image/svg+xml</dc:format>
        <dc:type
           rdf:resource="http://purl.org/dc/dcmitype/StillImage" />
      </cc:Work>
    </rdf:RDF>
  </metadata>
  <defs
     id="defs37">
    <linearGradient
       gradientTransform="matrix(0.26457031,0,0,0.26457031,-84.662115,-16.006503)"
       inkscape:collect="always"
       xlink:href="#linearGradient927"
       id="linearGradient1004"
       x1="344"
       y1="62"
       x2="344"
       y2="106"
       gradientUnits="userSpaceOnUse" />
    <linearGradient
       inkscape:collect="always"
       id="linearGradient927">
      <stop
         style="stop-color:#ffffff;stop-opacity:1;"
         offset="0"
         id="stop923" />
      <stop
         id="stop933"
         offset="0.125"
         style="stop-color:#ffffff;stop-opacity:0.09803922" />
      <stop
         id="stop931"
         offset="0.92500001"
         style="stop-color:#ffffff;stop-opacity:0.09803922" />
      <stop
         style="stop-color:#ffffff;stop-opacity:0.49803922"
         offset="1"
         id="stop925" />
    </linearGradient>
    <linearGradient
       inkscape:collect="always"
       xlink:href="#linearGradient4338"
       id="linearGradient1024"
       gradientUnits="userSpaceOnUse"
       gradientTransform="matrix(0,-0.02997086,0.02997,0,-3.0395088,13.625372)"
       x1="459.03448"
       y1="419.23337"
       x2="35.310345"
       y2="207.36522" />
    <linearGradient
       inkscape:collect="always"
       id="linearGradient4338">
      <stop
         style="stop-color:#f2f2f2;stop-opacity:1"
         offset="0"
         id="stop4340" />
      <stop
         style="stop-color:#f9f9f9;stop-opacity:1"
         offset="1"
         id="stop4342" />
    </linearGradient>
  </defs>
  <sodipodi:namedview
     pagecolor="#ffffff"
     bordercolor="#666666"
     borderopacity="1"
     objecttolerance="10"
     gridtolerance="10"
     guidetolerance="10"
     inkscape:pageopacity="0"
     inkscape:pageshadow="2"
     inkscape:window-width="834"
     inkscape:window-height="480"
     id="namedview35"
     showgrid="false"
     inkscape:zoom="4.9166667"
     inkscape:cx="24"
     inkscape:cy="24"
     inkscape:window-x="0"
     inkscape:window-y="28"
     inkscape:window-maximized="0"
     inkscape:current-layer="svg33" />
  <linearGradient
     id="a"
     gradientUnits="userSpaceOnUse"
     x1="344"
     x2="344"
     y1="62"
     y2="106">
    <stop
       offset="0"
       stop-color="#fff"
       id="stop2" />
    <stop
       offset=".125"
       stop-color="#fff"
       stop-opacity=".098039"
       id="stop4" />
    <stop
       offset=".92500001"
       stop-color="#fff"
       stop-opacity=".098039"
       id="stop6" />
    <stop
       offset="1"
       stop-color="#fff"
       stop-opacity=".498039"
       id="stop8" />
  </linearGradient>
  <clipPath
     id="b">
    <path
       d="m335.73108 62c-8.82418 0-9.77365.90635-9.7304 9.74838v12.25162 12.25162c-.0433 8.84203.90622 9.74838 9.7304 9.74838h16.53919c8.82418 0 9.7304-.90625 9.7304-9.74838v-12.25162-12.25162c0-8.84213-.90622-9.74838-9.7304-9.74838z"
       id="path11" />
  </clipPath>
  <linearGradient
     id="c"
     gradientTransform="matrix(0 -.02997086 .02997 0 -3.039509 13.625372)"
     gradientUnits="userSpaceOnUse"
     x1="459.03448"
     x2="35.310345"
     y1="419.23337"
     y2="207.36522">
    <stop
       offset="0"
       stop-color="#f2f2f2"
       id="stop14" />
    <stop
       offset="1"
       stop-color="#f9f9f9"
       id="stop16" />
  </linearGradient>
  <path
     style="color:#000000;font-style:normal;font-variant:normal;font-weight:normal;font-stretch:normal;font-size:medium;line-height:normal;font-family:sans-serif;font-variant-ligatures:normal;font-variant-position:normal;font-variant-caps:normal;font-variant-numeric:normal;font-variant-alternates:normal;font-feature-settings:normal;text-indent:0;text-align:start;text-decoration:none;text-decoration-line:none;text-decoration-style:solid;text-decoration-color:#000000;letter-spacing:normal;word-spacing:normal;text-transform:none;writing-mode:lr-tb;direction:ltr;text-orientation:mixed;dominant-baseline:auto;baseline-shift:baseline;text-anchor:start;white-space:normal;shape-padding:0;clip-rule:nonzero;display:inline;overflow:visible;visibility:visible;opacity:0.1;isolation:auto;mix-blend-mode:normal;color-interpolation:sRGB;color-interpolation-filters:linearRGB;solid-color:#000000;solid-opacity:1;vector-effect:none;fill:#000000;fill-opacity:1;fill-rule:nonzero;stroke:none;stroke-width:0.52914065;stroke-linecap:butt;stroke-linejoin:miter;stroke-miterlimit:4;stroke-dasharray:none;stroke-dashoffset:0;stroke-opacity:1;marker:none;color-rendering:auto;image-rendering:auto;shape-rendering:auto;text-rendering:auto;enable-background:accumulate"
     d="M 4.1621982,0.39685594 C 3.5740849,0.38789764 3.1108804,0.41039674 2.7297987,0.47436684 2.3487142,0.53833574 2.0368758,0.65832234 1.808451,0.88620764 1.580029,1.1140931 1.4594669,1.425791 1.3960944,1.8070363 1.3327219,2.1882819 1.3203506,2.6524287 1.3232344,3.2420202 v 3.2399529 3.2415027 c -0.00286,0.5886862 0.00955,1.0525982 0.07286,1.4334342 0.063373,0.381246 0.1839345,0.692944 0.4123566,0.920829 0.2284247,0.227885 0.5402631,0.347873 0.9213476,0.411841 0.3810844,0.06397 0.8442174,0.07751 1.4323995,0.07751 h 4.3757443 c 0.5881821,0 1.0510744,-0.01352 1.4313677,-0.07751 0.3802939,-0.064 0.6911799,-0.18439 0.9187599,-0.412357 0.227584,-0.227967 0.347434,-0.539443 0.411325,-0.920313 0.06389,-0.380868 0.07751,-0.844073 0.07751,-1.4334342 V 6.4819731 3.3071294 L 8.5379425,0.46351524 Z"
     id="path1020"
     inkscape:connector-curvature="0"
     sodipodi:nodetypes="sccsccccccsscccscccs" />
  <path
     style="color:#000000;display:inline;overflow:visible;visibility:visible;opacity:0.2;fill:none;fill-opacity:1;fill-rule:nonzero;stroke:#000000;stroke-width:0.52914065;stroke-miterlimit:4;stroke-dasharray:none;stroke-opacity:1;marker:none;enable-background:accumulate"
     d="m 4.1623596,0.39685594 c -2.3346161,0 -2.5858177,0.2397934 -2.574375,2.57913196 v 3.2414149 3.241415 C 1.5765286,11.798157 1.8277435,12.03795 4.1623596,12.03795 h 4.3757787 c 2.3346157,0 2.5743757,-0.239767 2.5743757,-2.5791322 V 6.2174028 L 11.112336,3.042559 8.4666329,0.39685594 Z"
     id="path958"
     inkscape:connector-curvature="0"
     sodipodi:nodetypes="scccssscccs" />
  <path
     style="color:#000000;display:inline;overflow:visible;visibility:visible;fill:url(#linearGradient1024);fill-opacity:1;fill-rule:nonzero;stroke:none;stroke-width:0.26457033;marker:none;enable-background:accumulate"
     d="m 4.1623596,0.39685594 c -2.3346161,0 -2.5858177,0.2397934 -2.574375,2.57913196 v 3.2414149 3.241415 C 1.5765286,11.798157 1.8277435,12.03795 4.1623596,12.03795 h 4.3757787 c 2.3346157,0 2.5743757,-0.239767 2.5743757,-2.5791322 V 6.2174028 L 11.112336,3.042559 8.4666329,0.39685594 Z"
     id="path964"
     inkscape:connector-curvature="0"
     sodipodi:nodetypes="scccssscccs" />
  <path
     sodipodi:nodetypes="ccsccccccccscccscccccsccccccccscccscccccccscsssccsccssscsccccccsssscccccssscsccccscssscccc"
     id="path940-3"
     d="m 7.1318254,5.6892543 v 0.1193556 h 0.079575 c 0.2118652,0 0.2848814,0.027431 0.3580721,0.1352775 L 8.2776582,7.018101 7.6410862,7.9490896 C 7.5871535,8.0261324 7.4731475,8.20372 7.084081,8.20372 v 0.1193582 l 0.4296887,-0.015901 c 0.1425293,0 0.354667,0.00437 0.4933442,0.015901 V 8.20372 C 7.8299153,8.1998572 7.7604418,8.090042 7.7604418,8.0207035 c 0,-0.034669 0.012832,-0.045152 0.039786,-0.087525 L 8.3492721,7.1215454 8.9540164,8.0445783 c 0.0077,0.015398 0.023864,0.02823 0.023864,0.039783 0,0.046226 -0.088988,0.1155088 -0.2546278,0.1193583 v 0.1193582 c 0.1348251,-0.011562 0.4185767,-0.015901 0.5649582,-0.015901 l 0.5013105,0.015901 V 8.20372 h -0.071617 c -0.2003114,0 -0.2851327,-0.023811 -0.3660277,-0.1432305 L 8.5402469,6.8350872 9.065419,6.063243 C 9.1501661,5.9399744 9.2875337,5.8124673 9.6303771,5.8086099 V 5.6892543 l -0.429686,0.015901 c -0.1540884,0 -0.3392611,-0.00437 -0.4933469,-0.015901 v 0.1193556 c 0.1540858,0.00386 0.2387165,0.086462 0.2387165,0.1750609 0,0.038519 -0.00487,0.05311 -0.03183,0.095483 L 8.4686277,6.7236872 7.9752861,5.9836708 c -0.00773,-0.011562 -0.023891,-0.040291 -0.023891,-0.0557 0,-0.046226 0.081027,-0.1155035 0.2466721,-0.1193609 V 5.6892543 c -0.134825,0.011562 -0.4185793,0.015901 -0.5649581,0.015901 z m -4.1495182,0 -0.071614,0.8673329 h 0.095483 c 0.05393,-0.6201951 0.110601,-0.747972 0.6922747,-0.747972 0.069339,0 0.1683673,2.513e-4 0.2068861,0.00796 0.080895,0.015424 0.08753,0.054628 0.08753,0.1432277 v 2.0734614 c 0,0.1309729 -0.00132,0.199031 -0.4058164,0.1909748 H 3.4279071 v 0.1193592 c 0.1579379,-0.011562 0.5548622,-0.015901 0.7320582,-0.015901 0.1772012,0 0.5741228,0.00437 0.7320607,0.015901 V 8.2242427 H 4.7328843 c -0.4044751,0 -0.3978582,-0.060002 -0.3978582,-0.1909748 V 5.9598065 c 0,-0.077043 -0.00569,-0.1278218 0.063658,-0.1432304 0.042371,-0.0077 0.1496092,-0.00796 0.2228,-0.00796 0.5816737,0 0.638342,0.1277768 0.692272,0.747972 h 0.095489 L 5.3376259,5.6892543 Z M 5.083993,6.7545229 v 0.1193556 h 0.095486 c 0.2966151,0 0.3023748,0.036381 0.3023748,0.1750582 v 2.0401441 c 0,0.138674 -0.00577,0.183014 -0.3023748,0.183014 H 5.083993 v 0.119358 H 7.3040395 L 7.4711447,8.3968038 H 7.3677004 c -0.096304,0.59323 -0.180892,0.875291 -0.8434607,0.875291 H 6.0149788 c -0.1810481,0 -0.1909695,-0.03202 -0.1909695,-0.159145 V 8.0769643 h 0.3421582 c 0.373658,0 0.4217304,0.126126 0.4217304,0.4535585 h 0.095486 V 7.5040505 h -0.095486 c 0,0.3312818 -0.048072,0.4535556 -0.4217304,0.4535556 H 5.8240093 V 7.0250619 c 0,-0.1271155 0.00995,-0.1511834 0.1909695,-0.1511834 h 0.4933469 c 0.589378,0 0.6942987,0.2045684 0.755933,0.7400164 h 0.095486 L 7.2483421,6.7545229 Z"
     style="font-style:normal;font-variant:normal;font-weight:normal;font-stretch:normal;font-size:15.12844849px;line-height:125%;font-family:'Latin Modern Roman';-inkscape-font-specification:'Latin Modern Roman';text-align:start;letter-spacing:0px;word-spacing:0px;writing-mode:lr-tb;text-anchor:start;display:inline;opacity:1;fill:#111111;fill-opacity:1;stroke:none;stroke-width:0.18092084;enable-background:new"
     inkscape:connector-curvature="0" />
  <path
     style="color:#000000;display:inline;overflow:visible;visibility:visible;opacity:0.2;fill:#ffffff;fill-opacity:1;fill-rule:nonzero;stroke:none;stroke-width:0.26457033;marker:none;enable-background:accumulate"
     d="m 1.5878047,6.2174028 v 3.241503 C 1.5763487,11.798244 1.8275821,12.03795 4.1621982,12.03795 h 4.3757443 c 2.3346165,0 2.5743935,-0.239679 2.5743935,-2.5790442 v -3.241503 z"
     id="path1006"
     inkscape:connector-curvature="0" />
  <path
     style="color:#000000;display:inline;overflow:visible;visibility:visible;opacity:0.1;fill:#ffffff;fill-opacity:1;fill-rule:nonzero;stroke:none;stroke-width:0.26457033;marker:none;enable-background:accumulate"
     d="M 6.3500704,0.39685594 V 12.03795 h 2.1878721 c 2.3346165,0 2.5743935,-0.239679 2.5743935,-2.5790442 V 6.2174028 3.042559 L 8.4666329,0.39685594 Z"
     id="path1013"
     inkscape:connector-curvature="0"
     sodipodi:nodetypes="ccsscccc" />
  <path
     style="color:#000000;font-style:normal;font-variant:normal;font-weight:normal;font-stretch:normal;font-size:medium;line-height:normal;font-family:sans-serif;font-variant-ligatures:normal;font-variant-position:normal;font-variant-caps:normal;font-variant-numeric:normal;font-variant-alternates:normal;font-feature-settings:normal;text-indent:0;text-align:start;text-decoration:none;text-decoration-line:none;text-decoration-style:solid;text-decoration-color:#000000;letter-spacing:normal;word-spacing:normal;text-transform:none;writing-mode:lr-tb;direction:ltr;text-orientation:mixed;dominant-baseline:auto;baseline-shift:baseline;text-anchor:start;white-space:normal;shape-padding:0;clip-rule:nonzero;display:inline;overflow:visible;visibility:visible;opacity:0.4;isolation:auto;mix-blend-mode:normal;color-interpolation:sRGB;color-interpolation-filters:linearRGB;solid-color:#000000;solid-opacity:1;vector-effect:none;fill:url(#linearGradient1004);fill-opacity:1;fill-rule:nonzero;stroke:none;stroke-width:0.52914065;stroke-linecap:butt;stroke-linejoin:miter;stroke-miterlimit:4;stroke-dasharray:none;stroke-dashoffset:0;stroke-opacity:1;marker:none;color-rendering:auto;image-rendering:auto;shape-rendering:auto;text-rendering:auto;enable-background:accumulate"
     clip-path="none"
     d="m 4.1621982,0.39685594 c -2.3346161,0 -2.5858362,0.2397052 -2.5743935,2.57904386 v 3.241503 3.241503 C 1.5763487,11.798244 1.8275821,12.03795 4.1621982,12.03795 h 4.3757443 c 2.3346165,0 2.5743935,-0.239679 2.5743935,-2.5790442 V 6.2174028 3.042559 h -0.26457 v 3.1748438 3.241503 c 0,0.5803222 -0.01624,1.0240722 -0.07028,1.3461042 -0.05402,0.322035 -0.139871,0.509123 -0.264055,0.633524 -0.124184,0.124388 -0.310701,0.2105 -0.6319709,0.264571 -0.321273,0.05406 -0.7643965,0.07028 -1.3435224,0.07028 H 4.1621982 c -0.5791259,0 -1.0227997,-0.01619 -1.3450728,-0.07028 -0.3222705,-0.0541 -0.5102953,-0.14009 -0.635072,-0.264571 C 2.0572794,11.314046 1.9714661,11.127183 1.9180017,10.805529 1.8645347,10.483875 1.8495335,10.040017 1.852375,9.4599388 V 9.4594098 6.2174028 2.975383 2.9748539 c -0.00283,-0.5800778 0.01217,-1.0239334 0.065627,-1.3455882 0.053467,-0.3216548 0.1392777,-0.5085247 0.2640517,-0.63300506 0.1247741,-0.1244803 0.3133201,-0.2104736 0.6355905,-0.2645703 0.3222705,-0.0540718 0.7654284,-0.070264 1.3445543,-0.070264 h 4.3044347 v -0.2645704 z"
     id="path990"
     inkscape:connector-curvature="0" />
  <path
     inkscape:connector-curvature="0"
     style="color:#000000;display:inline;overflow:visible;visibility:visible;opacity:0.2;fill:#000000;fill-opacity:1;fill-rule:nonzero;stroke:none;stroke-width:0.06614863;marker:none;enable-background:accumulate"
     d="M 11.112336,3.3071294 V 3.042559 L 8.4666329,0.39685594 H 8.2020626 v 1.11359066 0.042668 0.022917 c 0,1.5059289 0.201592,1.7381397 1.7109762,1.7307589 z"
     id="rect4158-0-3-62-2"
     sodipodi:nodetypes="ccccccscc" />
  <path
     inkscape:connector-curvature="0"
     style="color:#000000;display:inline;overflow:visible;visibility:visible;fill:#faf8f6;fill-opacity:1;fill-rule:nonzero;stroke:none;stroke-width:0.06614863;marker:none;enable-background:accumulate"
     d="M 11.112336,3.0422204 8.4666329,0.39685544 v 0.98127586 0.042668 0.022917 c 0,1.5059289 0.069402,1.6058846 1.5787861,1.5985039 z"
     id="rect4158-0-3-62"
     sodipodi:nodetypes="ccccscc" />
</svg>
